public/avatar/emote/22.svg

<svg xmlns:xlink="http://www.w3.org/1999/xlink" height="100.8" width="132.65" xmlns="http://www.w3.org/2000/svg"><g transform="translate(77.75 73.55)"><use height="28.5" transform="translate(-12.75 -12.7)" width="25.5" xlink:href="#a"/><use height="35.95" transform="translate(-23.5 -22.35)" width="48.5" xlink:href="#b"/></g><defs><g id="a"><path d="M9-8.55q3.75 4.15 3.75 10.1 0 5.9-3.75 10.05t-9 4.2q-5.3-.05-9-4.2-3.75-4.15-3.75-10.05 0-5.95 3.75-10.1 3.7-4.15 9-4.15 5.25 0 9 4.15" fill="url(#c)" fill-rule="evenodd" transform="translate(12.75 12.7)"/><path d="M1.35-3.15v.05l-.05.7-.2.1.25-.85" fill="#fff" fill-rule="evenodd" transform="translate(12.75 12.7)"/><path d="m1.35-3.15.35-.8q.6-1.1 1.4-1.35l.55-.1q1.15 0 1.95 1.45.65 1.1.8 2.65v.8M1.35-3.15l-.25.85-.15.9v.1L.9-.6m-7.6-.05.05-.65q.15-1.5.8-2.6.75-1.45 1.9-1.45l.65.15q.75.25 1.3 1.3.6 1.05.75 2.45v.15l.05.6" fill="none" stroke="#666" stroke-linecap="round" stroke-linejoin="round" transform="translate(12.75 12.7)"/></g><g id="b" transform="translate(23.45 29.5)"><use height="9.95" transform="matrix(.9409 0 0 1.309 -12.42 -6.57)" width="25.5" xlink:href="#d"/><use height="2.4" transform="translate(-22.35 -10.6)" width="2.4" xlink:href="#e"/><use height="2.4" transform="translate(-23.45 -17)" width="2.4" xlink:href="#e"/><use height="2.4" transform="translate(-13.55 -25.6)" width="2.4" xlink:href="#e"/><use height="2.4" transform="translate(1.45 -29.5)" width="2.4" xlink:href="#e"/><use height="2.4" transform="translate(4.45 -25.6)" width="2.4" xlink:href="#e"/><use height="2.4" transform="translate(15.05 -14.8)" width="2.4" xlink:href="#e"/><use height="2.4" transform="translate(22.65 -12.2)" width="2.4" xlink:href="#e"/><use height="2.4" transform="translate(20.45 -8.2)" width="2.4" xlink:href="#e"/></g><g id="f"><path d="M8.05.2q.25 1.25-.95 2.85h-1L5.7 3v-.45l-.05-.5-.2-.55q-.2-.35-.7-.35-.55-.05-.8.35-.25.35-.35.85l-.05.55-10.25.65q-.65-.7-.95-2.75L5.2-.05 8.05.2" fill="#fff" fill-rule="evenodd" transform="translate(13.2 .55)"/><path d="M-6.6 6.85q5.85-2.7 12.85-.2L.3 8.9l-6.9-2.05" fill="#c00" fill-rule="evenodd" transform="translate(13.2 .55)"/><path d="M-7.65.8q.3 2.05.95 2.75L3.55 2.9l.05-.55q.1-.5.35-.85.25-.4.8-.35.5 0 .7.35l.2.55.05.5V3l.4.05h1q1.2-1.6.95-2.85l2.3.25q4.25 2.1-4.1 6.2-7-2.5-12.85.2-4.55-1.75-5.75-3.1-1.2-1.4 2-2.5l2.7-.45" fill-rule="evenodd" transform="translate(13.2 .55)"/><path d="M8.05.2 5.2-.05-7.65.8l-2.7.45q-3.2 1.1-2 2.5 1.2 1.35 5.75 3.1L.3 8.9l5.95-2.25q8.35-4.1 4.1-6.2L8.05.2Z" fill="none" stroke="#333" stroke-linecap="round" stroke-linejoin="round" transform="translate(13.2 .55)"/></g><use height="9.95" width="25.5" xlink:href="#f" id="d"/><use height="2.4" width="2.4" xlink:href="#g" id="e"/><radialGradient cx="0" cy="0" gradientTransform="matrix(.0288 0 0 .0247 0 1.5)" gradientUnits="userSpaceOnUse" id="c" r="819.2" spreadMethod="pad"><stop offset="0" stop-color="#f33"/><stop offset=".537" stop-color="#f33" stop-opacity="0"/></radialGradient><path d="M.85-.85q.35.35.35.85T.85.85Q.5 1.2 0 1.2T-.85.85Q-1.2.5-1.2 0t.35-.85Q-.5-1.2 0-1.2t.85.35" fill="#fff" fill-rule="evenodd" transform="translate(1.2 1.2)" id="g"/></defs></svg>

<?xml version="1.0" encoding="UTF-8" standalone="no"?>
<svg xmlns:xlink="http://www.w3.org/1999/xlink" height="100.8px" width="132.65px" xmlns="http://www.w3.org/2000/svg">
  <g transform="matrix(1.0, 0.0, 0.0, 1.0, 77.75, 73.55)">
    <use height="28.5" transform="matrix(1.0, 0.0, 0.0, 1.0, -12.75, -12.7)" width="25.5" xlink:href="#shape0"/>
    <use height="35.95" transform="matrix(1.0, 0.0, 0.0, 1.0, -23.5, -22.35)" width="48.5" xlink:href="#sprite0"/>
  </g>
  <defs>
    <g id="shape0" transform="matrix(1.0, 0.0, 0.0, 1.0, 12.75, 12.7)">
      <path d="M9.0 -8.55 Q12.75 -4.4 12.75 1.55 12.75 7.45 9.0 11.6 5.25 15.75 0.0 15.8 -5.3 15.75 -9.0 11.6 -12.75 7.45 -12.75 1.55 -12.75 -4.4 -9.0 -8.55 -5.3 -12.7 0.0 -12.7 5.25 -12.7 9.0 -8.55" fill="url(#gradient0)" fill-rule="evenodd" stroke="none"/>
      <path d="M1.35 -3.15 L1.35 -3.1 1.3 -2.4 1.1 -2.3 1.35 -3.15" fill="#ffffff" fill-rule="evenodd" stroke="none"/>
      <path d="M1.35 -3.15 L1.7 -3.95 Q2.3 -5.05 3.1 -5.3 L3.65 -5.4 Q4.8 -5.4 5.6 -3.95 6.25 -2.85 6.4 -1.3 L6.4 -0.5 M1.35 -3.15 L1.1 -2.3 0.95 -1.4 0.95 -1.3 0.9 -0.6 M-6.7 -0.65 L-6.65 -1.3 Q-6.5 -2.8 -5.85 -3.9 -5.1 -5.35 -3.95 -5.35 L-3.3 -5.2 Q-2.55 -4.95 -2.0 -3.9 -1.4 -2.85 -1.25 -1.45 L-1.25 -1.3 -1.2 -0.7" fill="none" stroke="#666666" stroke-linecap="round" stroke-linejoin="round" stroke-width="1.0"/>
    </g>
    <radialGradient cx="0" cy="0" gradientTransform="matrix(0.0288, 0.0, 0.0, 0.0247, 0.0, 1.5)" gradientUnits="userSpaceOnUse" id="gradient0" r="819.2" spreadMethod="pad">
      <stop offset="0.0" stop-color="#ff3333"/>
      <stop offset="0.5372549019607843" stop-color="#ff3333" stop-opacity="0.0"/>
    </radialGradient>
    <g id="sprite0" transform="matrix(1.0, 0.0, 0.0, 1.0, 23.45, 29.5)">
      <use height="9.95" transform="matrix(0.9409, 0.0, 0.0, 1.309, -12.4205, -6.5699)" width="25.5" xlink:href="#sprite1"/>
      <use height="2.4" transform="matrix(1.0, 0.0, 0.0, 1.0, -22.35, -10.6)" width="2.4" xlink:href="#sprite2"/>
      <use height="2.4" transform="matrix(1.0, 0.0, 0.0, 1.0, -23.45, -17.0)" width="2.4" xlink:href="#sprite2"/>
      <use height="2.4" transform="matrix(1.0, 0.0, 0.0, 1.0, -13.55, -25.6)" width="2.4" xlink:href="#sprite2"/>
      <use height="2.4" transform="matrix(1.0, 0.0, 0.0, 1.0, 1.45, -29.5)" width="2.4" xlink:href="#sprite2"/>
      <use height="2.4" transform="matrix(1.0, 0.0, 0.0, 1.0, 4.45, -25.6)" width="2.4" xlink:href="#sprite2"/>
      <use height="2.4" transform="matrix(1.0, 0.0, 0.0, 1.0, 15.05, -14.8)" width="2.4" xlink:href="#sprite2"/>
      <use height="2.4" transform="matrix(1.0, 0.0, 0.0, 1.0, 22.65, -12.2)" width="2.4" xlink:href="#sprite2"/>
      <use height="2.4" transform="matrix(1.0, 0.0, 0.0, 1.0, 20.45, -8.2)" width="2.4" xlink:href="#sprite2"/>
    </g>
    <g id="sprite1" transform="matrix(1.0, 0.0, 0.0, 1.0, 13.2, 0.55)">
      <use height="9.95" transform="matrix(1.0, 0.0, 0.0, 1.0, -13.2, -0.55)" width="25.5" xlink:href="#shape1"/>
    </g>
    <g id="shape1" transform="matrix(1.0, 0.0, 0.0, 1.0, 13.2, 0.55)">
      <path d="M8.05 0.2 Q8.3 1.45 7.1 3.05 L6.1 3.05 5.7 3.0 5.7 2.85 5.7 2.55 5.65 2.05 5.45 1.5 Q5.25 1.15 4.75 1.15 4.2 1.1 3.95 1.5 3.7 1.85 3.6 2.35 L3.55 2.9 -6.7 3.55 Q-7.35 2.85 -7.65 0.8 L5.2 -0.05 8.05 0.2" fill="#ffffff" fill-rule="evenodd" stroke="none"/>
      <path d="M-6.6 6.85 Q-0.75 4.15 6.25 6.65 L0.3 8.9 -6.6 6.85" fill="#cc0000" fill-rule="evenodd" stroke="none"/>
      <path d="M-7.65 0.8 Q-7.35 2.85 -6.7 3.55 L3.55 2.9 3.6 2.35 Q3.7 1.85 3.95 1.5 4.2 1.1 4.75 1.15 5.25 1.15 5.45 1.5 L5.65 2.05 5.7 2.55 5.7 2.85 5.7 3.0 6.1 3.05 7.1 3.05 Q8.3 1.45 8.05 0.2 L10.35 0.45 Q14.6 2.55 6.25 6.65 -0.75 4.15 -6.6 6.85 -11.15 5.1 -12.35 3.75 -13.55 2.35 -10.35 1.25 L-7.65 0.8" fill="#000000" fill-rule="evenodd" stroke="none"/>
      <path d="M8.05 0.2 L5.2 -0.05 -7.65 0.8 -10.35 1.25 Q-13.55 2.35 -12.35 3.75 -11.15 5.1 -6.6 6.85 L0.3 8.9 6.25 6.65 Q14.6 2.55 10.35 0.45 L8.05 0.2 Z" fill="none" stroke="#333333" stroke-linecap="round" stroke-linejoin="round" stroke-width="1.0"/>
    </g>
    <g id="sprite2" transform="matrix(1.0, 0.0, 0.0, 1.0, 1.2, 1.2)">
      <use height="2.4" transform="matrix(1.0, 0.0, 0.0, 1.0, -1.2, -1.2)" width="2.4" xlink:href="#shape2"/>
    </g>
    <g id="shape2" transform="matrix(1.0, 0.0, 0.0, 1.0, 1.2, 1.2)">
      <path d="M0.85 -0.85 Q1.2 -0.5 1.2 0.0 1.2 0.5 0.85 0.85 0.5 1.2 0.0 1.2 -0.5 1.2 -0.85 0.85 -1.2 0.5 -1.2 0.0 -1.2 -0.5 -0.85 -0.85 -0.5 -1.2 0.0 -1.2 0.5 -1.2 0.85 -0.85" fill="#ffffff" fill-rule="evenodd" stroke="none"/>
    </g>
  </defs>
</svg>
